svg/fluentui-system-icons/ic_fluent_water_48_filled.svg

<svg width="48" height="48" viewBox="0 0 48 48" fill="none" xmlns="http://www.w3.org/2000/svg">
<path d="M37 8C37.6188 8 38.1741 8.38003 38.3982 8.95687C38.9473 10.3705 39.7878 11.4091 40.6186 12.0844C41.494 12.796 42.2201 13 42.5 13C43.3284 13 44 13.6716 44 14.5C44 15.3284 43.3284 16 42.5 16C41.2799 16 39.9025 15.3685 38.7263 14.4123C38.1208 13.9201 37.5304 13.3126 36.9983 12.5916C35.3402 14.8032 32.9718 15.9934 30.5001 15.9935C28.0275 15.9936 25.6582 14.8029 24 12.5901C22.3418 14.8029 19.9725 15.9936 17.5 15.9936C15.0287 15.9936 12.6605 14.804 11.0023 12.5932C10.47 13.3148 9.87923 13.9225 9.27326 14.4146C8.0962 15.3706 6.71904 16 5.5 16C4.67157 16 4 15.3284 4 14.5C4 13.6716 4.67157 13 5.5 13C5.78096 13 6.50728 12.7962 7.38196 12.0859C8.21222 11.4116 9.05249 10.3736 9.60157 8.95846C9.82546 8.38145 10.3807 8.00119 10.9997 8.00105C11.6186 8.00092 12.1741 8.38093 12.3982 8.95785C13.4953 11.7817 15.5894 12.9936 17.5 12.9936C19.4106 12.9936 21.5047 11.7817 22.6018 8.95785C22.8259 8.38105 23.3812 8.00105 24 8.00105C24.6188 8.00105 25.1741 8.38105 25.3982 8.95785C26.4953 11.7817 28.5894 12.9936 30.4999 12.9935C32.4105 12.9934 34.5047 11.7813 35.6018 8.95687C35.8259 8.38003 36.3812 8 37 8ZM37 20C37.6188 20 38.1741 20.38 38.3982 20.9569C38.9473 22.3705 39.7878 23.4091 40.6186 24.0844C41.494 24.796 42.2201 25 42.5 25C43.3284 25 44 25.6716 44 26.5C44 27.3284 43.3284 28 42.5 28C41.2799 28 39.9025 27.3685 38.7263 26.4123C38.1208 25.9201 37.5304 25.3126 36.9983 24.5916C35.3402 26.8032 32.9718 27.9934 30.5001 27.9935C28.0275 27.9936 25.6582 26.8029 24 24.5901C22.3418 26.8029 19.9725 27.9936 17.5 27.9936C15.0287 27.9936 12.6605 26.804 11.0023 24.5932C10.47 25.3148 9.87923 25.9225 9.27326 26.4146C8.0962 27.3706 6.71904 28 5.5 28C4.67157 28 4 27.3284 4 26.5C4 25.6716 4.67157 25 5.5 25C5.78096 25 6.50728 24.7962 7.38196 24.0859C8.21222 23.4116 9.05249 22.3736 9.60157 20.9585C9.82546 20.3814 10.3807 20.0012 10.9997 20.0011C11.6186 20.0009 12.1741 20.3809 12.3982 20.9578C13.4953 23.7817 15.5894 24.9936 17.5 24.9936C19.4106 24.9936 21.5047 23.7817 22.6018 20.9578C22.8259 20.381 23.3812 20.0011 24 20.0011C24.6188 20.0011 25.1741 20.381 25.3982 20.9578C26.4953 23.7817 28.5894 24.9936 30.4999 24.9935C32.4105 24.9934 34.5047 23.7813 35.6018 20.9569C35.8259 20.38 36.3812 20 37 20ZM38.3982 32.9569C38.9473 34.3705 39.7878 35.4091 40.6186 36.0844C41.494 36.796 42.2201 37 42.5 37C43.3284 37 44 37.6716 44 38.5C44 39.3284 43.3284 40 42.5 40C41.2799 40 39.9025 39.3685 38.7263 38.4123C38.1208 37.9201 37.5304 37.3126 36.9983 36.5916C35.3402 38.8032 32.9718 39.9934 30.5001 39.9935C28.0275 39.9936 25.6582 38.8029 24 36.5901C22.3418 38.8029 19.9725 39.9936 17.5 39.9936C15.0287 39.9936 12.6605 38.804 11.0023 36.5932C10.47 37.3148 9.87923 37.9225 9.27326 38.4146C8.0962 39.3706 6.71904 40 5.5 40C4.67157 40 4 39.3284 4 38.5C4 37.6716 4.67157 37 5.5 37C5.78096 37 6.50728 36.7962 7.38196 36.0859C8.21222 35.4116 9.05249 34.3736 9.60157 32.9585C9.82546 32.3815 10.3807 32.0012 10.9997 32.0011C11.6186 32.0009 12.1741 32.3809 12.3982 32.9578C13.4953 35.7817 15.5894 36.9936 17.5 36.9936C19.4106 36.9936 21.5047 35.7817 22.6018 32.9578C22.8259 32.381 23.3812 32.0011 24 32.0011C24.6188 32.0011 25.1741 32.381 25.3982 32.9578C26.4953 35.7817 28.5894 36.9936 30.4999 36.9935C32.4105 36.9934 34.5047 35.7813 35.6018 32.9569C35.8259 32.38 36.3812 32 37 32C37.6188 32 38.1741 32.38 38.3982 32.9569Z" fill="#212121"/>
</svg>

<svg xmlns="http://www.w3.org/2000/svg" width="48" height="48"><path d="M37 8a1.5 1.5 0 0 1 1.398.957c.55 1.413 1.39 2.452 2.22 3.127.876.712 1.602.916 1.882.916a1.5 1.5 0 0 1 0 3c-1.22 0-2.597-.632-3.774-1.588a9.994 9.994 0 0 1-1.728-1.82c-1.658 2.211-4.026 3.401-6.498 3.401-2.473 0-4.842-1.19-6.5-3.403-1.658 2.213-4.027 3.404-6.5 3.404-2.471 0-4.84-1.19-6.498-3.4a9.971 9.971 0 0 1-1.729 1.82C8.096 15.372 6.72 16 5.5 16a1.5 1.5 0 0 1 0-3c.281 0 1.007-.204 1.882-.914.83-.674 1.67-1.712 2.22-3.128a1.5 1.5 0 0 1 2.796 0c1.097 2.824 3.191 4.036 5.102 4.036 1.91 0 4.005-1.212 5.102-4.036a1.5 1.5 0 0 1 2.796 0c1.097 2.824 3.191 4.036 5.102 4.035 1.91 0 4.005-1.212 5.102-4.036A1.5 1.5 0 0 1 37 8Zm0 12a1.5 1.5 0 0 1 1.398.957c.55 1.413 1.39 2.452 2.22 3.127.876.712 1.602.916 1.882.916a1.5 1.5 0 0 1 0 3c-1.22 0-2.597-.631-3.774-1.588a9.994 9.994 0 0 1-1.728-1.82c-1.658 2.211-4.026 3.401-6.498 3.402-2.473 0-4.842-1.191-6.5-3.404-1.658 2.213-4.027 3.404-6.5 3.404-2.471 0-4.84-1.19-6.498-3.4a9.971 9.971 0 0 1-1.729 1.82C8.096 27.372 6.72 28 5.5 28a1.5 1.5 0 0 1 0-3c.281 0 1.007-.204 1.882-.914.83-.674 1.67-1.712 2.22-3.127a1.5 1.5 0 0 1 2.796-.001c1.097 2.824 3.191 4.036 5.102 4.036 1.91 0 4.005-1.212 5.102-4.036a1.5 1.5 0 0 1 2.796 0c1.097 2.824 3.191 4.036 5.102 4.036 1.91 0 4.005-1.213 5.102-4.037A1.5 1.5 0 0 1 37 20Zm1.398 12.957c.55 1.413 1.39 2.452 2.22 3.127.876.712 1.602.916 1.882.916a1.5 1.5 0 0 1 0 3c-1.22 0-2.597-.632-3.774-1.588a9.994 9.994 0 0 1-1.728-1.82c-1.658 2.211-4.026 3.401-6.498 3.401-2.473 0-4.842-1.19-6.5-3.403-1.658 2.213-4.027 3.404-6.5 3.404-2.471 0-4.84-1.19-6.498-3.4a9.971 9.971 0 0 1-1.729 1.82C8.096 39.372 6.72 40 5.5 40a1.5 1.5 0 0 1 0-3c.281 0 1.007-.204 1.882-.914.83-.674 1.67-1.712 2.22-3.127a1.5 1.5 0 0 1 2.796-.001c1.097 2.824 3.191 4.036 5.102 4.036 1.91 0 4.005-1.212 5.102-4.036a1.5 1.5 0 0 1 2.796 0c1.097 2.824 3.191 4.036 5.102 4.035 1.91 0 4.005-1.212 5.102-4.036a1.5 1.5 0 0 1 2.796 0Z"/></svg>
